X: 100291
T: STETSON'S HORNPIPE
R: hornpipe
B: K\"ohler's Violin Repository, v.3, 1885 p.213 #3
F: http://www.archive.org/details/klersviolinrepos03rugg
Z: 2012 John Chambers <jc:trillian.mit.edu>
N: Corrected the original 2/4 time signature.
M: C
L: 1/8
K: F
uc |\
f>c ((3c=Bc) f>c ((3cBc) | (de)fg a>f ((3fef) | (d>b)c>a (B>g)A>f | (G>B)c>B A>F C2 |
f>c ((3c=Bc) f>c ((3cBc) | (d>e)f>g a>f ((3fef) | (d>b)c>a (B>g)A>f | G>(fa>g) f2 :||: (uc>f) |
a2g>e f>ac'2 | (f>g)e>f dfb2 | (b>a)a>g g>ff>e | f>a (g/f/e/f/) c2(f>g) |
a2g>e f>ac'2 | (f>g)e>f dfb2 | (b>a)a>g g>ff>g | f>ca>g f2 :|

%%sep 2 1 500

